X:173
T:Blaydon Races
Z:Jack Campin, http://www.campin.me.uk/
F:Jack Campin's Nine-Note Tunebook
% last edit 03-02-2013
M:6/8
L:1/8
Q:3/8=124
K:G
 D|G2G G2G|G2G G2G|A2A A2A|B3  G3 |
[1 ccc c2c|B2B B2B|A2B A2G|F3  D2:|
[2 ccc c2c|B2c d2d|d2c B2A|G2A B2||
 c|d3  d2B|G3  G2G|A2A A2A|B3  G3 |
   c2c c2c|B2B B2B|A2B A2G|F3  D3 |
   G2G G2G|G3  G2G|A2A A2A|B3  G3 |
   c2c c2c|B2c d2d|d2c B2A|G3- G2|]

